assets/img/wcpos-icon.svg

<?xml version="1.0"?>
<svg viewBox="0 0 1260 1260" xmlns="http://www.w3.org/2000/svg">
  <path d="m0,90q0,-90 90,-90l1080,0q90,0 90,90l0,810q0,90 -90,90l-810,0l-360,270l0,-1170z" fill="#323A46"/>
  <g fill="#CD2C24">
   <path d="m0,90q0,-90 90,-90l90,0l0,270a90,90 0 1 1 -180,0l0,-180zm360,-90l180,0l0,270a90,90 0 1 1 -180,0l0,-270zm360,0l180,0l0,270a90,90 0 1 1 -180,0l0,-270zm360,0l90,0q90,0 90,90l0,180a90,90 0 1 1 -180,0l0,-270z"/>
  </g>
  <g fill="#F5E5C0">
   <path d="m180,0l180,0l0,270a90,90 0 1 1 -180,0l0,-270zm360,0l180,0l0,270a90,90 0 1 1 -180,0l0,-270zm360,0l180,0l0,270a90,90 0 1 1 -180,0l0,-270z"/>
  </g>
  <path d="m130,923.5l0,-391.5m0,130.5a130.5,130.5 0 1 0 261,0a130.5,130.5 0 1 0 -261,0" fill="#FFF" fill-opacity="0" stroke="#FFF" stroke-linecap="round" stroke-width="55"/>
  <path d="m630,531m-131,131a131,131 0 1 0 262,0a131,131 0 1 0 -262,0" fill="#FFF" fill-opacity="0" stroke="#FFF" stroke-linecap="round" stroke-width="55"/>
  <path d="m1131,565.8c-21.75,-13.05 -65.25,-34.8 -130.5,-34.8q-130.5,0 -130.5,65.25t130.5,65.25t130.5,65.25t-130.5,65.25c-65.25,0 -108.75,-21.75 -130.5,-34.8" fill="#FFF" fill-opacity="0" stroke="#FFF" stroke-linecap="round" stroke-width="55"/>
</svg>

<?xml version="1.0"?>
<svg viewBox="0 0 1260 1260" xmlns="http://www.w3.org/2000/svg">
    <path d="M0,90 Q0,0 90,0 L1170,0 Q1260,0 1260,90 L1260,900 Q1260,990 1170,990 L360,990 L0,1260 Z" fill="#323A46"/>
    <g fill="#CD2C24">
        <path d="M0,90 Q0,0 90,0 L180,0 L180,270 A90,90 0 1 1 0,270 Z
            M360,0 H540 V270 A90,90 0 1 1 360,270 Z
            M720,0 H900 V270 A90,90 0 1 1 720,270 Z
            M1080,0 H1170 Q1260,0 1260,90 L1260,270 A90,90 0 1 1 1080,270 Z"/>
    </g>
    <g fill="#F5E5C0">
        <path d="M180,0 H360 V270 A90,90 0 1 1 180,270 Z
            M540,0 H720 V270 A90,90 0 1 1 540,270 Z
            M900,0 H1080 V270 A90,90 0 1 1 900,270 Z"/>
    </g>
    <line x1="130" y1="923.5" x2="130" y2="532" fill="none" stroke="#FFF" stroke-linecap="round" stroke-width="55"/>
    <circle cx="260.5" cy="662.5" r="130.5" fill="none" stroke="#FFF" stroke-linecap="round" stroke-width="55"/>
    <circle cx="630" cy="662" r="131" fill="none" stroke="#FFF" stroke-linecap="round" stroke-width="55" />
    <path d="m1131,565.8c-21.75,-13.05 -65.25,-34.8 -130.5,-34.8q-130.5,0 -130.5,65.25t130.5,65.25t130.5,65.25t-130.5,65.25c-65.25,0 -108.75,-21.75 -130.5,-34.8" fill="#FFF" fill-opacity="0" stroke="#FFF" stroke-linecap="round" stroke-width="55"/>
</svg>
